!!!OTL: WAS SOLL ICH DENN NUN SINGEN
!!!ARE: Europa, Mitteleuropa, Deutschland, Schlesien
!!!SCT: E0211
!!!YEM: Copyright 1995, estate of Helmut Schaffrath.
**kern
*ICvox
*Ivox
*M2/4
*k[b-]
*F:
{8f
=1
8f
8a
8cc
8a
=2
8a
8g
8g}
{8g
=3
8b-
8b-
8dd
8b-
=4
4b-
8a}
{8a
=5
8cc
8a
8cc
8a
=6
4cc
8ff
8r}
=7
{8dd
8dd
8dd
8dd
=8
4cc
8a}
{8cc
=9
8cc
8b-
8g
8cc
=10
4a
8r}
{8a
=11
8cc
8a
8cc
8a
=12
4cc
8ff
8r}
=13
{8dd
8dd
8dd
8dd
=14
4cc
8a}
{8cc
=15
8cc
8b-
8g
8cc
=16
4a
8r}
==
!!!AGN: erzaehlendes Volks - Lied, Mahn -, Moral - Lied, Strafe; Untreue
!!!ONB: ESAC (Essen Associative Code) Database: ERK1
!!!AMT: simple duple
!!!AIN: vox
!!!EED: Helmut Schaffrath
!!!EEV: 1.0
*-
